_icons/SVG/071-victreebel-shiny.svg

<svg xmlns="http://www.w3.org/2000/svg" width="32" height="32"><path fill="#E2B060" d="M.229 17.675c.664 1.801 2.806 6.625 6.876 7.256 2.307.358 4.592-1.125 4.866-3.444A4.001 4.001 0 008 17H.698a.5.5 0 00-.469.675z"/><path fill="#DAA355" d="M31.771 17.675c-.664 1.801-2.806 6.625-6.876 7.256-2.307.358-4.592-1.125-4.866-3.444A4.001 4.001 0 0124 17h7.302a.5.5 0 01.469.675z"/><path fill="#96643B" d="M13.991 29.828c-2.551 1.328-6.65-1.439-6.65-1.439l-.953 1s6.018 5.627 11.612.367l-4.009.072z"/><path fill="#9E6E43" d="M16 29.998S11.458 32.792 7 29l.341-.612s4.099 2.767 6.65 1.439l2.009.171z"/><path fill="#E8BA67" d="M.274 17.249c4.719 4.46 11.434 4.282 11.674 4.274.022-.172.052-.344.052-.523a4 4 0 00-4-4H.698a.489.489 0 00-.424.249z"/><path fill="#E2B060" d="M20.003 20.972l-.002.039c.001.175.029.343.052.513.24.008 6.955.185 11.674-4.274a.49.49 0 00-.425-.25H24a3.998 3.998 0 00-3.997 3.972z"/><path fill="#CBEB6B" d="M9.32 12H9l.345 1.609c.48 2.239.099 4.528-.803 6.632a6.887 6.887 0 00-.54 2.585c-.075 3.479 2.558 6.419 5.989 7.001.682.116 1.355.17 2.009.17V16c-2.862 0-5.742-1.255-6.68-4z"/><path fill="#BEE758" d="M23.371 20.047a10.13 10.13 0 01-.717-6.432L23 12h-.32c-.938 2.745-3.817 4-6.68 4v13.998c4.418 0 8-2.58 8-6.998 0-1.103-.224-2.091-.629-2.953z"/><path fill="#FFF" d="M10.382 15.186c-.238.382-.382.83-.382 1.314a2.496 2.496 0 004.955.444c-1.772-.17-3.363-.771-4.573-1.758z"/><path fill="#FFF" d="M10.382 15.186c-.238.382-.382.83-.382 1.314a2.496 2.496 0 004.955.444c-1.772-.17-3.363-.771-4.573-1.758z"/><path fill="#373F3F" d="M11.648 16.008a.966.966 0 00-.148.492 1 1 0 001 1c.486 0 .871-.353.962-.812a8.543 8.543 0 01-1.814-.68z"/><path fill="#F7F7F7" d="M21.618 15.186c.238.382.382.83.382 1.314a2.496 2.496 0 01-4.955.444c1.772-.17 3.363-.771 4.573-1.758z"/><path fill="#F7F7F7" d="M21.618 15.186c.238.382.382.83.382 1.314a2.496 2.496 0 01-4.955.444c1.772-.17 3.363-.771 4.573-1.758z"/><path fill="#2B3332" d="M20.352 16.008a.966.966 0 01.148.492 1 1 0 01-1 1c-.486 0-.871-.353-.962-.812a8.543 8.543 0 001.814-.68z"/><path fill="#373F3F" d="M16 4c-3.484 0-7 1.855-7 6s3.516 6 7 6V4z"/><path fill="#2B3332" d="M23 10c0-4.145-3.516-6-7-6v12c3.484 0 7-1.855 7-6z"/><path fill="#7C8AC4" d="M16 15c-2.768 0-6-1.31-6-5 0-3.691 3.232-5 6-5V3c-4.418 0-8 2.582-8 7s3.582 7 8 7v-2z"/><path fill="#707EB7" d="M22 10c0 3.69-3.232 5-6 5v2c4.418 0 8-2.582 8-7s-3.582-7-8-7v2c2.768 0 6 1.309 6 5z"/><path fill="#9E6E43" d="M16 2V0a1 1 0 00-1 1v1h1z"/><path fill="#96643B" d="M16 2V0a1 1 0 011 1v1h-1z"/><path fill="#FFF" d="M14 14.761v-2.294a.25.25 0 00-.389-.208l-2.016 1.344c.681.567 1.522.941 2.405 1.158z"/><path fill="#F7F7F7" d="M18 14.761v-2.294c0-.2.223-.319.389-.208l2.016 1.344c-.681.567-1.522.941-2.405 1.158z"/><path fill="#BEE758" d="M3.714 25.128a.496.496 0 00-.586.586C3.477 27.419 4.587 31.413 7 29s-1.581-3.523-3.286-3.872z"/><path fill="#CBEB6B" d="M3.712 25.128a.493.493 0 00-.449.135L7 29c.25-.25.447-.533.61-.824.863-1.849-2.402-2.743-3.898-3.048z"/><path fill="#E8BA67" d="M16 2s-1-1-4-1c-2.116 0-3.268.995-3.763 1.581a.504.504 0 00.076.732C9.125 3.932 11.118 5.158 13 4c-1.029 2.599 1.508 3.791 2.611 5.283.096.13.242.194.389.194V2z"/><path fill="#E2B060" d="M16.389 9.283C17.492 7.791 20.029 6.599 19 4c1.882 1.158 3.875-.068 4.687-.687a.505.505 0 00.077-.732C23.268 1.995 22.116 1 20 1c-3 0-4 1-4 1v7.477a.48.48 0 00.389-.194z"/></svg>

<?xml version="1.0" encoding="utf-8"?>
<!-- Generator: Adobe Illustrator 23.0.6, SVG Export Plug-In . SVG Version: 6.00 Build 0)  -->
<svg version="1.1" xmlns="http://www.w3.org/2000/svg" xmlns:xlink="http://www.w3.org/1999/xlink" x="0px" y="0px" width="32px"
	 height="32px" viewBox="0 0 32 32" enable-background="new 0 0 32 32" xml:space="preserve">
<g id="icons">
	<g>
		<path fill="#E2B060" d="M0.229,17.675c0.664,1.801,2.806,6.625,6.876,7.256c2.307,0.358,4.592-1.125,4.866-3.444
			C12.258,19.061,10.37,17,8,17H0.698C0.348,17,0.108,17.348,0.229,17.675z"/>
		<path fill="#DAA355" d="M31.771,17.675c-0.664,1.801-2.806,6.625-6.876,7.256c-2.307,0.358-4.592-1.125-4.866-3.444
			C19.742,19.061,21.63,17,24,17h7.302C31.652,17,31.892,17.348,31.771,17.675z"/>
		<path fill="#96643B" d="M13.991,29.828c-2.551,1.328-6.65-1.439-6.65-1.439l-0.953,1c0,0,6.018,5.627,11.612,0.367L13.991,29.828z
			"/>
		<path fill="#9E6E43" d="M16,29.998c0,0-4.542,2.794-9-0.998l0.341-0.612c0,0,4.099,2.767,6.65,1.439L16,29.998z"/>
		<path fill="#E8BA67" d="M0.274,17.249c4.719,4.46,11.434,4.282,11.674,4.274C11.97,21.351,12,21.179,12,21c0-2.209-1.791-4-4-4
			c-1.742,0-5.702,0-7.302,0C0.509,17,0.359,17.105,0.274,17.249z"/>
		<path fill="#E2B060" d="M20.003,20.972c0,0.013-0.002,0.026-0.002,0.039c0.001,0.175,0.029,0.343,0.052,0.513
			c0.24,0.008,6.955,0.185,11.674-4.274C31.641,17.105,31.491,17,31.302,17c-1.6,0-5.56,0-7.302,0
			C21.8,17,20.018,18.776,20.003,20.972z"/>
		<path fill="#CBEB6B" d="M9.32,12H9l0.345,1.609c0.48,2.239,0.099,4.528-0.803,6.632c-0.33,0.768-0.519,1.632-0.54,2.585
			c-0.075,3.479,2.558,6.419,5.989,7.001c0.682,0.116,1.355,0.17,2.009,0.17V16C13.138,16,10.258,14.745,9.32,12z"/>
		<path fill="#BEE758" d="M23.371,20.047c-0.942-2.005-1.181-4.266-0.717-6.432L23,12h-0.32c-0.938,2.745-3.817,4-6.68,4v13.998
			c4.418,0,8-2.58,8-6.998C24,21.897,23.776,20.909,23.371,20.047z"/>
		<g>
			<g>
				<path fill="#FFFFFF" d="M10.382,15.186C10.144,15.568,10,16.016,10,16.5c0,1.381,1.119,2.5,2.5,2.5
					c1.229,0,2.245-0.888,2.455-2.056C13.183,16.774,11.592,16.173,10.382,15.186z"/>
			</g>
			<g>
				<path fill="#FFFFFF" d="M10.382,15.186C10.144,15.568,10,16.016,10,16.5c0,1.381,1.119,2.5,2.5,2.5
					c1.229,0,2.245-0.888,2.455-2.056C13.183,16.774,11.592,16.173,10.382,15.186z"/>
			</g>
		</g>
		<path fill="#373F3F" d="M11.648,16.008C11.562,16.155,11.5,16.317,11.5,16.5c0,0.552,0.448,1,1,1c0.486,0,0.871-0.353,0.962-0.812
			C12.817,16.524,12.208,16.297,11.648,16.008z"/>
		<g>
			<g>
				<path fill="#F7F7F7" d="M21.618,15.186C21.856,15.568,22,16.016,22,16.5c0,1.381-1.119,2.5-2.5,2.5
					c-1.229,0-2.245-0.888-2.455-2.056C18.817,16.774,20.408,16.173,21.618,15.186z"/>
			</g>
			<g>
				<path fill="#F7F7F7" d="M21.618,15.186C21.856,15.568,22,16.016,22,16.5c0,1.381-1.119,2.5-2.5,2.5
					c-1.229,0-2.245-0.888-2.455-2.056C18.817,16.774,20.408,16.173,21.618,15.186z"/>
			</g>
		</g>
		<path fill="#2B3332" d="M20.352,16.008c0.086,0.147,0.148,0.309,0.148,0.492c0,0.552-0.448,1-1,1
			c-0.486,0-0.871-0.353-0.962-0.812C19.183,16.524,19.792,16.297,20.352,16.008z"/>
		<path fill="#373F3F" d="M16,4c-3.484,0-7,1.855-7,6s3.516,6,7,6V4z"/>
		<path fill="#2B3332" d="M23,10c0-4.145-3.516-6-7-6v12C19.484,16,23,14.145,23,10z"/>
		<path fill="#7C8AC4" d="M16,15c-2.768,0-6-1.31-6-5c0-3.691,3.232-5,6-5V3c-4.418,0-8,2.582-8,7s3.582,7,8,7V15z"/>
		<path fill="#707EB7" d="M22,10c0,3.69-3.232,5-6,5v2c4.418,0,8-2.582,8-7s-3.582-7-8-7v2C18.768,5,22,6.309,22,10z"/>
		<path fill="#9E6E43" d="M16,2V0c-0.552,0-1,0.448-1,1v1H16z"/>
		<path fill="#96643B" d="M16,2V0c0.552,0,1,0.448,1,1v1H16z"/>
		<path fill="#FFFFFF" d="M14,14.761v-2.294c0-0.2-0.223-0.319-0.389-0.208l-2.016,1.344C12.276,14.17,13.117,14.544,14,14.761z"/>
		<path fill="#F7F7F7" d="M18,14.761v-2.294c0-0.2,0.223-0.319,0.389-0.208l2.016,1.344C19.724,14.17,18.883,14.544,18,14.761z"/>
		<path fill="#BEE758" d="M3.714,25.128c-0.349-0.072-0.658,0.237-0.586,0.586C3.477,27.419,4.587,31.413,7,29
			S5.419,25.477,3.714,25.128z"/>
		<path fill="#CBEB6B" d="M3.712,25.128c-0.174-0.035-0.338,0.024-0.449,0.135L7,29c0.25-0.25,0.447-0.533,0.61-0.824
			C8.473,26.327,5.208,25.433,3.712,25.128z"/>
		<path fill="#E8BA67" d="M16,2c0,0-1-1-4-1C9.884,1,8.732,1.995,8.237,2.581C8.047,2.805,8.08,3.135,8.313,3.313
			C9.125,3.932,11.118,5.158,13,4c-1.029,2.599,1.508,3.791,2.611,5.283c0.096,0.13,0.242,0.194,0.389,0.194V2z"/>
		<path fill="#E2B060" d="M16.389,9.283C17.492,7.791,20.029,6.599,19,4c1.882,1.158,3.875-0.068,4.687-0.687
			c0.233-0.178,0.266-0.507,0.077-0.732C23.268,1.995,22.116,1,20,1c-3,0-4,1-4,1v7.477C16.147,9.477,16.294,9.412,16.389,9.283z"/>
	</g>
</g>
<g id="labels">
</g>
</svg>
